img/history.svg

<svg fill="none" height="21" viewBox="0 0 20 21" width="20" xmlns="http://www.w3.org/2000/svg"><path d="m10.8333 10.1667 2.0834 2.0833c.1527.1528.2291.3472.2291.5833s-.0764.4306-.2291.5834c-.1528.1527-.3473.2291-.5834.2291s-.4305-.0764-.5833-.2291l-2.33333-2.3334c-.08334-.0833-.14584-.1772-.1875-.2816-.04167-.1039-.0625-.2114-.0625-.3225v-3.31253c0-.23611.08-.43417.24-.59417.15944-.15944.35722-.23917.59333-.23917.2361 0 .4342.07973.5942.23917.1594.16.2391.35806.2391.59417zm-.8333 7.8333c-1.68056 0-3.1875-.4967-4.52083-1.49-1.33334-.9928-2.22917-2.2878-2.6875-3.885-.06945-.25-.045-.4861.07333-.7083.11778-.2223.30167-.3611.55167-.4167.23611-.0556.44805-.0036.63583.1558.18722.16.31556.3581.385.5942.36111 1.2222 1.05917 2.2083 2.09417 2.9583 1.03444.75 2.19055 1.125 3.46833 1.125 1.625 0 3.0033-.5661 4.135-1.6983 1.1322-1.1317 1.6983-2.51 1.6983-4.135s-.5661-3.00361-1.6983-4.13583c-1.1317-1.13167-2.51-1.6975-4.135-1.6975-.95833 0-1.85417.22222-2.6875.66666-.83333.44445-1.53472 1.05556-2.10417 1.83334h1.45834c.23611 0 .43416.07972.59416.23916.15945.16.23917.35806.23917.59417s-.07972.43389-.23917.59333c-.16.16-.35805.24-.59416.24h-3.33334c-.23611 0-.43389-.08-.59333-.24-.16-.15944-.24-.35722-.24-.59333v-3.33333c0-.23611.08-.43417.24-.59417.15944-.15944.35722-.23917.59333-.23917s.43417.07973.59417.23917c.15944.16.23917.35806.23917.59417v1.125c.70833-.88889 1.57305-1.57639 2.59416-2.0625 1.02056-.48611 2.10028-.72917 3.23917-.72917 1.0417 0 2.0175.19778 2.9275.59333.9094.39611 1.7011.93084 2.375 1.60417.6733.67389 1.2081 1.46556 1.6042 2.375.3955.91.5933 1.88583.5933 2.9275 0 1.0417-.1978 2.0172-.5933 2.9267-.3961.91-.9309 1.7016-1.6042 2.375-.6739.6739-1.4656 1.2089-2.375 1.605-.91.3955-1.8858.5933-2.9275.5933z" fill="#1c8aa9"/></svg>

<svg width="20" height="21" viewBox="0 0 20 21" fill="none" xmlns="http://www.w3.org/2000/svg">
<path d="M10.8333 10.1667L12.9167 12.25C13.0694 12.4028 13.1458 12.5972 13.1458 12.8333C13.1458 13.0694 13.0694 13.2639 12.9167 13.4167C12.7639 13.5694 12.5694 13.6458 12.3333 13.6458C12.0972 13.6458 11.9028 13.5694 11.75 13.4167L9.41667 11.0833C9.33333 11 9.27083 10.9061 9.22917 10.8017C9.1875 10.6978 9.16667 10.5903 9.16667 10.4792V7.16667C9.16667 6.93056 9.24667 6.7325 9.40667 6.5725C9.56611 6.41306 9.76389 6.33333 10 6.33333C10.2361 6.33333 10.4342 6.41306 10.5942 6.5725C10.7536 6.7325 10.8333 6.93056 10.8333 7.16667V10.1667ZM10 18C8.31944 18 6.8125 17.5033 5.47917 16.51C4.14583 15.5172 3.25 14.2222 2.79167 12.625C2.72222 12.375 2.74667 12.1389 2.865 11.9167C2.98278 11.6944 3.16667 11.5556 3.41667 11.5C3.65278 11.4444 3.86472 11.4964 4.0525 11.6558C4.23972 11.8158 4.36806 12.0139 4.4375 12.25C4.79861 13.4722 5.49667 14.4583 6.53167 15.2083C7.56611 15.9583 8.72222 16.3333 10 16.3333C11.625 16.3333 13.0033 15.7672 14.135 14.635C15.2672 13.5033 15.8333 12.125 15.8333 10.5C15.8333 8.875 15.2672 7.49639 14.135 6.36417C13.0033 5.2325 11.625 4.66667 10 4.66667C9.04167 4.66667 8.14583 4.88889 7.3125 5.33333C6.47917 5.77778 5.77778 6.38889 5.20833 7.16667H6.66667C6.90278 7.16667 7.10083 7.24639 7.26083 7.40583C7.42028 7.56583 7.5 7.76389 7.5 8C7.5 8.23611 7.42028 8.43389 7.26083 8.59333C7.10083 8.75333 6.90278 8.83333 6.66667 8.83333H3.33333C3.09722 8.83333 2.89944 8.75333 2.74 8.59333C2.58 8.43389 2.5 8.23611 2.5 8V4.66667C2.5 4.43056 2.58 4.2325 2.74 4.0725C2.89944 3.91306 3.09722 3.83333 3.33333 3.83333C3.56944 3.83333 3.7675 3.91306 3.9275 4.0725C4.08694 4.2325 4.16667 4.43056 4.16667 4.66667V5.79167C4.875 4.90278 5.73972 4.21528 6.76083 3.72917C7.78139 3.24306 8.86111 3 10 3C11.0417 3 12.0175 3.19778 12.9275 3.59333C13.8369 3.98944 14.6286 4.52417 15.3025 5.1975C15.9758 5.87139 16.5106 6.66306 16.9067 7.5725C17.3022 8.4825 17.5 9.45833 17.5 10.5C17.5 11.5417 17.3022 12.5172 16.9067 13.4267C16.5106 14.3367 15.9758 15.1283 15.3025 15.8017C14.6286 16.4756 13.8369 17.0106 12.9275 17.4067C12.0175 17.8022 11.0417 18 10 18Z" fill="#1C8AA9"/>
</svg>
